Sources/FrostedUI/Resources/Icons.xcassets/addUser32.imageset/add-user-32.svg

<svg width="32" height="32" viewBox="0 0 32 32" fill="none" xmlns="http://www.w3.org/2000/svg" data-fui-icon="true">
  <path
    d="M25.5996 20.0498C26.0138 20.0498 26.3495 20.3856 26.3496 20.7998V24.8496H30.3994C30.8135 24.8496 31.1492 25.1855 31.1494 25.5996C31.1494 26.0138 30.8136 26.3496 30.3994 26.3496H26.3496V30.3994C26.3496 30.8136 26.0138 31.1494 25.5996 31.1494C25.1855 31.1492 24.8496 30.8135 24.8496 30.3994V26.3496H20.7998C20.3856 26.3495 20.0498 26.0138 20.0498 25.5996C20.05 25.1856 20.3858 24.8497 20.7998 24.8496H24.8496V20.7998C24.8497 20.3858 25.1856 20.05 25.5996 20.0498ZM16 18.0508C17.4301 18.0508 19.105 18.0511 21.7021 18.7783C22.1007 18.8902 22.3343 19.3044 22.2227 19.7031C22.1107 20.1014 21.6963 20.3339 21.2979 20.2227C18.8961 19.5501 17.381 19.5508 16 19.5508C9.92883 19.551 5.15039 23.9467 5.15039 29.2012C5.14974 29.6147 4.814 29.9509 4.40039 29.9512C3.98663 29.9511 3.65104 29.6148 3.65039 29.2012C3.65039 22.9684 9.25864 18.051 16 18.0508ZM16 1.75C20.0039 1.75007 23.2498 4.99614 23.25 9C23.2498 13.0039 20.0039 16.2499 16 16.25C11.9961 16.2499 8.7502 13.0039 8.75 9C8.7502 4.99614 11.9961 1.75007 16 1.75ZM16 3.25C12.8245 3.25007 10.2502 5.82457 10.25 9C10.2502 12.1754 12.8245 14.7499 16 14.75C19.1755 14.7499 21.7498 12.1754 21.75 9C21.7498 5.82457 19.1755 3.25007 16 3.25Z"
    fill="currentColor"
  />
</svg>

<svg xmlns="http://www.w3.org/2000/svg" width="32" height="32" fill="none" data-fui-icon="true" viewBox="0 0 32 32"><path fill="currentColor" d="M25.6 20.05a.75.75 0 0 1 .75.75v4.05h4.05a.75.75 0 0 1 0 1.5h-4.05v4.05a.75.75 0 0 1-1.5 0v-4.05H20.8a.75.75 0 0 1 0-1.5h4.05V20.8a.75.75 0 0 1 .75-.75m-9.6-2c1.43 0 3.105.001 5.702.728a.751.751 0 0 1-.404 1.445c-2.402-.673-3.917-.672-5.298-.672-6.071 0-10.85 4.396-10.85 9.65a.751.751 0 0 1-1.5 0c0-6.233 5.609-11.15 12.35-11.15m0-16.3a7.25 7.25 0 1 1 0 14.5 7.25 7.25 0 0 1 0-14.5m0 1.5a5.75 5.75 0 1 0 0 11.5 5.75 5.75 0 0 0 0-11.5"/></svg>
